X:1
T:Anime affaticate
T:Francisco Soto de Laga
T:Source : Primo libro delle laude spirituali a tre voci---Roma---Aless.Gardano---1583. Editor : André Vierendeels (16/08/17).
T:(1534-1619)
T:Anime affaticate
T:©
T:©
C:Francisco Soto de Laga
Z:©
%%score [ 1 2 3 ]
L:1/8
Q:1/4=120
M:4/4
K:F
V:1 treble nm="Soprano 1" snm="S 1"
V:2 treble nm="Soprano 2" snm="S 2"
V:3 treble-8 nm="Tenor" snm="T"
V:1
 A4 A2 A2 | G2 G2 A4- | A2 A2 B2 B2 | c4 c4 | z2 c2 c2 c2 | c3 c f2 e2 | d2 c2 B4 | G2 G2 c2 c2 | %8
w: A- ni- me'af-|fa- ti- ca-|* t'et si- ti|bon- de,|ve- ni- te'a-|l'on- de vi- ve'o-|ve v'in- vi-|ta, la ve- ra|
w: La lun- ga|se- te na-|* tu- ral, che|sem- pre,|con du- re|tem- pre'il _ cor|e- at- *|* de,- e- tor-|
w: All' ac- qua|vi- va che|_ con vo- glio'ac-|ce- se,|Don- na hu-|mil chi- es- se'al-|la fon- ta-|na, e- * ter-|
w: Al- le cis-|ter- ne, a'i|_ mor- * ti|sta- gni,|a'i la- ghi,|van- no'i cuor va-|* ghi pur|del som- * mo|
w: Ve- ni- te|dun- que all'|_ ac- * que|dol- ci,|e chia- re|tor- bi- d'e a-|ma- re son|l'ac- que d'E- git-|
 B4 A4 | z2 c2 f2 f2 | e2 e2 d4 | d2 A2 c2 c2 | d4 c4 | G4 B2 A2 | G4 !fermata!F4 :| %15
w: vi- ta,|o- ve la|lun- ga se-|te spe- gner po-|tre- te,|spe- gner po-|tre- te.|
w: men- ta,-|ne'il fuo- co'al-|len- ta ma-|i, se non s'ar-|ri- va|all' ac- que|vi- va|
w: * na,|che in sua|cis- ter- na'il|mon- do si su-|a- ve,|ac- qua non|ha- ve.|
w: be- ne,|ma di tai|ve- ne'il ber|sem- * pre mag-|gio- re,|fà'il vo- stro'ar-|do- re.|
w: * to,|il ca- min|drit- to pren-|da'e su- glia il|mon- te,|chi bra- ma'il|fon- te.|
V:2
 F4 F2 F2 | E2 G2 ^F4- | F2 ^F2 G2 G2 | A4 A4 | z2 A2 A2 A2 | A3 G A2 c2 | F2 F2 G4 | E3 E E2 C2 | %8
w: A- ni- me'af-|fa- ti- ca-|* t'et si- ti-|bon- de,|ve- ni- te'a-|l'on- de vi- ve'o-|ve v'in- vi-|ta, la ve- ra|
w: La lun- ga|se- te na-|* tu- ral, che|sem- pre,|con du- re|tem- * * pre'il|cor- e- at-|* d'e tor- men-|
w: All' ac- qua|vi- va che|_ con vo- glio'ac-|ce- se,|Don- na hu-|mil chi- es- se'al-|la fon- ta-|na e- ter- *|
w: Al- le cis-|ter- ne, a'i|_ mor- * ti|sta- gni,|a'i la- ghi|van- no'i cuor va-|* ghi pur|del som- mo be-|
w: Ve- ni- te|dun- que all'|_ ac- * que|dol- ci,|e chia- re|tor- bi- d'e a-|ma- re son|l'ac- que d'E- git-|
 D2 E2 F4 | z2 A2 d2 d2 | c2 G2 B4 | F2 F2 G2 A2 | B4 A4 | E4 F2 F2- | F2 E2 !fermata!F4 :| %15
w: vi- * ta,|o- ve la|lun- ga se-|te spe- gner po-|tre- te,|spe- gner po-|* tre- te.|
w: * * ta,|ne'il fuo- co'al-|len- ta ma-|i, se non s'ar-|ri- va,|all' ac- que|_ vi- va.|
w: * * na,|che in sua|cis- ter- na'il|mun- di si so-|a- ve,|ac- qua non|_ ha- ve.|
w: * * ne,|ma di tai|ve- ne'il ber|sem- pre mag- gi-|o- re,|fà'il vo- stro'ar-|* do- re.|
w: * * to,|il ca- min|drit- to pren-|da'e su- glia il|mon- te,|chi bra- ma'il|_ fon- te.|
V:3
 F4 F2 F2 | c2 _e2 d4- |"^b" d2 d2 e2 g2 | f4 f4 | z2 f2 f2 f2 | f3 e d2 c2 | B2 A2 G4 | %7
w: A- ni- me'af-|fa- ti- ca-|* t'et si- ti-|bon- de,|ve- ni- te'a-|l'on- de vi- ve'o-|ve v'in- vi-|
w: La lun- ga|se- te na-|* tu- ral, che|sem- pre,|con du- re|tem- * * pre'il|cor e- at-|
w: All' ac- qua|vi- va che|_ con vo- glio'ac-|ce- se,|Don- na hu-|mil chi- es- se'al-|la fon- ta-|
w: Al- le cis-|ter- ne, a'i|_ mor- * ti|sta- gni,|a'i la- ghi|van- no'i cuor va-|* ghi pur|
w: Ve- ni- te|dun- que all'|_ ac- * que|dol- ci,|e chia- re|tor- bi- d'e a-|ma- re son|
 c2 c2 A2 A2 | G4 F4 | z2 f2 B2 B2 | c2 c2 GFGA | B2 d2 c2 c2 | B4 F4 | c4 B2 F2 | %14
w: ta, la ver- a|vi- ta,|o- ve la|lun- ga se- * * *|te spe- gner po-|tre- te,|spe- gner po-|
w: * d'e tor- men-|* ta,|ne'il fuo- co'al-|len- ta ma- * * *|i, se non s'ar-|ri- va,|all' ac- qua|
w: na e- * ter-|* na|che in sua|cis- ter- na'il _ _ _|_ di si so-|a- ve,|ac- qua non|
w: del som- * mo|be- ne,|ma di tai|ve- ne'il ber _ _ _|sem- pre mag- gi-|o- re,|fà'il vo- stro'ar-|
w: l'ac- * que d'E-|git- to,|il ca- min|drit- to pren- * * *|da'e si- glia il|mon- te|chi bra- ma'il|
 c4 !fermata!F4 :| %15
w: tre- te.|
w: vi- va.|
w: ha- ve.|
w: do- re.|
w: fon- te.|

